icons/emotion-sad-fill.svg

<svg viewBox="0 0 24 24" fill="currentColor" xmlns="http://www.w3.org/2000/svg"><path d="M12 2C17.5228 2 22 6.47715 22 12C22 13.6169 21.6162 15.1442 20.9348 16.4958C20.8633 16.2175 20.7307 15.9523 20.5374 15.7206L20.4142 15.5858L19 14.1716L17.5858 15.5858L17.469 15.713C16.8069 16.4988 16.8458 17.6743 17.5858 18.4142C18.014 18.8424 18.588 19.0358 19.148 18.9946C17.3323 20.8487 14.8006 22 12 22C6.47715 22 2 17.5228 2 12C2 6.47715 6.47715 2 12 2ZM12 15C10.6199 15 9.37036 15.5592 8.46564 16.4633L8.30009 16.6368L9.24506 17.4961C10.035 17.1825 10.982 17 12 17C12.9049 17 13.7537 17.1442 14.4859 17.3965L14.7549 17.4961L15.6999 16.6368C14.7853 15.6312 13.4664 15 12 15ZM8.5 10C7.67157 10 7 10.6716 7 11.5C7 12.3284 7.67157 13 8.5 13C9.32843 13 10 12.3284 10 11.5C10 10.6716 9.32843 10 8.5 10ZM15.5 10C14.6716 10 14 10.6716 14 11.5C14 12.3284 14.6716 13 15.5 13C16.3284 13 17 12.3284 17 11.5C17 10.6716 16.3284 10 15.5 10Z"/></svg>

<svg xmlns="http://www.w3.org/2000/svg" viewBox="0 0 24 24">
    <g>
        <path fill="none" d="M0 0h24v24H0z"/>
        <path d="M12 2c5.523 0 10 4.477 10 10a9.958 9.958 0 0 1-1.065 4.496 1.977 1.977 0 0 0-.398-.775l-.123-.135L19 14.172l-1.414 1.414-.117.127a2 2 0 0 0 1.679 3.282A9.974 9.974 0 0 1 12 22C6.477 22 2 17.523 2 12S6.477 2 12 2zm0 13c-1.38 0-2.63.56-3.534 1.463l-.166.174.945.86C10.035 17.182 10.982 17 12 17c.905 0 1.754.144 2.486.396l.269.1.945-.86A4.987 4.987 0 0 0 12 15zm-3.5-5a1.5 1.5 0 1 0 0 3 1.5 1.5 0 0 0 0-3zm7 0a1.5 1.5 0 1 0 0 3 1.5 1.5 0 0 0 0-3z"/>
    </g>
</svg>
